X:7
T:Drystone
T:Miserden Jig, The
C:Chris Walshaw
R:jig
M:6/8
K:GMix
A2G FGA|A2G BAG|A2G FGA|A^FD BGE:|
d2c B2A|c2B A2G|A2G FGA|A^FD BGE|
d2c B2A|c2B A2G|c2B ABc|dA^F BGE|]

